public/location-moon.svg

<svg xmlns="http://www.w3.org/2000/svg" viewBox="0 0 512 512" style="height: 512px; width: 512px;"><path d="M0 0h512v512H0z" fill="#000" fill-opacity="1"></path><g class="" transform="translate(0,0)" style=""><path d="M253.125 18.563c-131.53 0-238.375 106.813-238.375 238.343 0 131.53 106.846 238.344 238.375 238.344 131.53 0 238.344-106.815 238.344-238.344 0-131.528-106.816-238.344-238.345-238.344zm-23.938 52.093c40.517 0 77.988 12.904 108.532 34.813-5.597-.624-11.302-.97-17.064-.97-84.157 0-152.375 68.25-152.375 152.406 0 84.157 68.22 152.375 152.376 152.375 5.762 0 11.467-.313 17.063-.936-30.545 21.91-68.016 34.812-108.533 34.812-102.98 0-186.28-83.272-186.28-186.25 0-102.977 83.3-186.25 186.28-186.25z" fill="#fff" fill-opacity="1"></path></g></svg>

<?xml version="1.0" encoding="UTF-8" standalone="no"?>
<!DOCTYPE svg PUBLIC "-//W3C//DTD SVG 1.1//EN" "http://www.w3.org/Graphics/SVG/1.1/DTD/svg11.dtd">
<svg width="100%" height="100%" viewBox="0 0 512 512" version="1.1" xmlns="http://www.w3.org/2000/svg" xmlns:xlink="http://www.w3.org/1999/xlink" xml:space="preserve" xmlns:serif="http://www.serif.com/" style="fill-rule:evenodd;clip-rule:evenodd;stroke-linejoin:round;stroke-miterlimit:2;">
    <g>
        <path d="M253.125,18.563C121.595,18.563 14.75,125.376 14.75,256.906C14.75,388.436 121.596,495.25 253.125,495.25C384.655,495.25 491.469,388.435 491.469,256.906C491.469,125.378 384.653,18.562 253.124,18.562L253.125,18.563ZM229.187,70.656C269.704,70.656 307.175,83.56 337.719,105.469C332.122,104.845 326.417,104.499 320.655,104.499C236.498,104.499 168.28,172.749 168.28,256.905C168.28,341.062 236.5,409.28 320.656,409.28C326.418,409.28 332.123,408.967 337.719,408.344C307.174,430.254 269.703,443.156 229.186,443.156C126.206,443.156 42.906,359.884 42.906,256.906C42.906,153.929 126.206,70.656 229.186,70.656L229.187,70.656Z" style="fill:white;fill-rule:nonzero;"/>
    </g>
</svg>
